X:324
T:Untitled RH.324
R:hornpipe
S:Rev.R.Harrison’s MS,c1815,Cumbria
O:England
A:Temple Sowerby,Cumbria
Z:vmp.Simon Wilson. Review PJH, 2008.
M:2/4
L:1/16
Q:1/4=90
K:D
A2|d2d2 d2fd|a2a2 bagf|g2e2 e2ag|fgaf d2A2|!
d2d2 fdfd|a2a2 b2bg|fdge fdec|d2d2 d2:|!
|:cd|e2ef gfge|fgaf d2fa|b2ba gfed|cdec A2AA|!
Adde fdfd|gfga b2bg|fadf egce|d2d2 d2:|!
|:AG|FAdf afad|GBga b2G2|FAdf afba|gfed cBAG|!
FAdf afad|GBga b2bg|fdge fdec|d2d2 d2:|!
|:ed|Aa^ga fdfa|gabg e2ed|ca^ga fdgb|agfe d2A2|!
d2df e2eg|f2fa g2gb|afge fdec|d2d2 d2:|

